static/assets/img/icons/theme/devices/android.svg

<svg height="24" viewBox="0 0 24 24" width="24" xmlns="http://www.w3.org/2000/svg"><g fill="none" fill-rule="evenodd"><path d="m0 0h24v24h-24z" opacity="0"/><g fill="#000"><path d="m7.5 4v15h9v-15zm.21428571-2h8.57142859c.9467738 0 1.7142857.8954305 1.7142857 2v16c0 1.1045695-.7675119 2-1.7142857 2h-8.57142859c-.94677385 0-1.71428571-.8954305-1.71428571-2v-16c0-1.1045695.76751186-2 1.71428571-2z" fill-rule="nonzero"/><path d="m7.5 4v15h9v-15z" opacity=".3"/></g></g></svg>

<svg width="24px" height="24px" viewBox="0 0 24 24" version="1.1" xmlns="http://www.w3.org/2000/svg" xmlns:xlink="http://www.w3.org/1999/xlink">
    <title>Icon For Android</title>
    <g stroke="none" stroke-width="1" fill="none" fill-rule="evenodd">
        <rect opacity="0" x="0" y="0" width="24" height="24"></rect>
        <path d="M7.5,4 L7.5,19 L16.5,19 L16.5,4 L7.5,4 Z M7.71428571,2 L16.2857143,2 C17.2324881,2 18,2.8954305 18,4 L18,20 C18,21.1045695 17.2324881,22 16.2857143,22 L7.71428571,22 C6.76751186,22 6,21.1045695 6,20 L6,4 C6,2.8954305 6.76751186,2 7.71428571,2 Z" fill="#000000" fill-rule="nonzero"></path>
        <polygon fill="#000000" opacity="0.3" points="7.5 4 7.5 19 16.5 19 16.5 4"></polygon>
    </g>
</svg>
